!!!!SEGMENT: pl-kk--kk-i-6--047-001_anonim--missa-conceptionis-kyrie.krn
!!!cenid: 16xx:1040
!!!COM: Anonim
!!!COM-rismid: pe30004985
!!!CDT:
!!!CNT:
!!!OPR: Missa Conceptionis
!!!OTL: Kyrie
!!!OMV: 001
!!!PDT:
!!!AGN: Sacred; Mass
!!!SMS-siglum: PL-Kk
!!!SMS-shelfmark: Kk.I.6
!!!SMS-shelfwork: 047-001 M
!!!SMS-variant:
!!!SMS-altvar:
!!!NIFC-rismid: 1001136539
!!!URL-scan: http://repozytorium.nifc.pl/skany/pl-kk-nut--i-6
!!!ONB-nifc: UWAGA: C (skan 0068-0071, s. 133-138), T (skan 0180-0182, s. 165-169), B (skan 0289-0290, s. 160-163) Części Mszy: 1. Kyrie, 2. Et in terra, 3. Sanctus, 4. Agnus Dei
**kern	**text	**kern	**text	**kern	**text
*part3	*part3	*part2	*part2	*part1	*part1
*staff3	*staff3	*staff2	*staff2	*staff1	*staff1
*Iempty	*	*Itenor	*	*Ivox	*
*I"[Baſsus.]	*	*I"[Tenor.]	*	*I"[Cantus.]	*
*I'[B]	*	*I'[T]	*	*I'[S]	*
*clefF4	*	*clefC4	*	*clefC1	*
*k[b-]	*	*k[b-]	*	*k[b-]	*
*g:	*	*g:	*	*g:	*
*M2/1	*	*M2/1	*	*M2/1	*
*met(C|)	*	*met(C|)	*	*met(C|)	*
=1-	=1-	=1-	=1-	=1-	=1-
!!LO:TX:t=P:problem:4\middle, 8\middle:global
!!LO:TX:t=P:problem:4/middle:global
!LO:TX:t=P:problem:BB- scalone z kluczem	!	!	!	!LO:TX:t=P:problem:b- scalone z kluczem	!
!LO:TX:t=Miſsa Con\nceptionis B.V.M.	!	!LO:TX:t=Miſsa Conceptionis B.V.M.	!	!LO:TX:t=Miſsa Conceptionis B.V M.	!
!LO:TX:t=P:problem:przed kluczem inicjał K	!	!LO:TX:t=P:problem:przed kluczem inicjał K	!	!LO:TX:t=P:problem:przed kluczem inicjał K	!
00r	.	00r	.	2.g/	Ky-
!	!	!	!	!LO:TX:t=P:problem:kreska pseudotaktowa	!
.	.	.	.	4a\	-ri-
.	.	.	.	4b-\	-e
.	.	.	.	4cc\	.
.	.	.	.	4dd\	e-
.	.	.	.	8cc\L	.
!	!	!	!	!LO:TX:t=P:problem:kreska pseudotaktowa	!
.	.	.	.	8b-\J	.
=2-	=2-	=2-	=2-	=2-	=2-
*	*	*	*	*2\right	*
.	.	.	.	2cc\	.
.	.	.	.	1dd	.
!	!	!	!	!LO:TX:t=P:problem:kreska pseudotaktowa	!
.	.	.	.	2cc\	-lei-
=3-	=3-	=3-	=3-	=3-	=3-
1.G	Ky-	2.G/	Ky-	2dd\	-ſon
.	.	.	.	1b-	ky-
.	.	4A/	-ri-	.	.
.	.	4B-\	-e	.	.
.	.	4c\	.	.	.
*2\right	*	*	*	*	*
!	!	!	!	!LO:TX:t=P:problem:kreska pseudotaktowa	!
2G\	-ri-	4d\	e-	2b-\	-ri-
.	.	8c\L	.	.	.
.	.	8B-\J	.	.	.
=4-	=4-	=4-	=4-	=4-	=4-
*	*	*2\right	*	*	*
2F\	-e	2c\	.	2a\	-e
4E-X\	.	1d	.	4g/	.
!	!	!	!	!LO:TX:t=P:problem:kreska pseudotaktowa	!
4D/	.	.	.	4f/	.
!	!	!	!	!LO:LB:g=original	!
1E-	e-	.	.	2g/	e-
!	!	!	!	!LO:TX:t=P:problem:kreska pseudotaktowa	!
.	.	2c\	-lei-	2g/	-lei-
=5-	=5-	=5-	=5-	=5-	=5-
00D	-lei-	2.d\	-ſon	2f#X/	-ſon.
.	.	.	.	4d/	ky-
!	!	!	!	!LO:TX:t=P:problem:kreska pseudotaktowa	!
.	.	4c\	.	4e/	-ri-
!	!	!LO:LB:g=original	!	!	!
.	.	2B-\	e-	4f#X/	-e
.	.	.	.	4g/	.
.	.	2A/	.	1a\	e-
=6-	=6-	=6-	=6-	=6-	=6-
.	.	2.B-\	-lei-	.	.
.	.	.	.	1g	.
.	.	4c\	.	.	.
.	.	1A	.	.	.
.	.	.	.	2f#X/	-lei-
=7-	=7-	=7-	=7-	=7-	=7-
0GG;	-son.	0G;<	-ſon.	0g;	-ſon.
=8||	=8||	=8||	=8||	=8||	=8||
*M2/1	*	*M2/1	*	*M2/1	*
*met(C|)	*	*met(C|)	*	*met(C|)	*
!LO:LB:g=original	!	!	!	!LO:PB:g=original	!
0r	.	1.G	Chri-	1rg	.
.	.	.	.	1.d	Chri-
.	.	2G/	-ste	.	.
=9-	=9-	=9-	=9-	=9-	=9-
1r	.	2B-\	e-	.	.
!	!	!	!	!LO:TX:t=P:problem:kreska pseudotaktowa	!
.	.	2B-\	-lei-	2d/	-ste
1.D	Chri-	0A	-son.	4f/	e-
.	.	.	.	4e/	.
.	.	.	.	4f/	.
!	!	!	!	!LO:TX:t=P:problem:kreska pseudotaktowa	!
.	.	.	.	4g/	.
=10-	=10-	=10-	=10-	=10-	=10-
.	.	.	.	2.a\	.
2D/	-ste	.	.	.	.
.	.	.	.	8g/L	.
!	!	!	!	!LO:TX:t=P:problem:kreska pseudotaktowa	!
.	.	.	.	8f/J	.
*lig	*	*	*	*	*
1G	e-	1r	.	4g\	.
.	.	.	.	4a\	.
.	.	.	.	1b-\	.
=11-	=11-	=11-	=11-	=11-	=11-
1F	.	2r	.	.	.
!	!	!	!	!LO:TX:t=P:problem:kreska pseudotaktowa	!
.	.	1F	Chri-	2a\	.
*Xlig	*	*	*	*	*
2BB-/	-lei-	.	.	2.b-\	.
1BB-/	-son	2F/	-ste	.	.
.	.	.	.	4a\	.
=12-	=12-	=12-	=12-	=12-	=12-
.	.	1B-	e-	2g/	.
*	*ij	*	*	*	*
!	!	!	!	!LO:TX:t=P:problem:kreska pseudotaktowa	!
2BB-/	e-	.	.	2f#X/	.
1E-X	-lei-	1G	-lei-	1g	-lei-
=13-	=13-	=13-	=13-	=13-	=13-
0D;	-son	0A;;	-ſon.	0f#X;	-son.
*	*Xij	*	*	*	*
=14||	=14||	=14||	=14||	=14||	=14||
*M2/1	*	*M2/1	*	*M2/1	*
*met(C|)	*	*met(C|)	*	*met(C|)	*
!LO:TX:t=P:problem:brak powtórzonego metrum C|	!	!LO:LB:g=original	!	!LO:LB:g=original	!
1.GG	ky-	1.B-	Ky-	1.g	Ky-
!	!	!LO:TX:t=P:problem:kreska pseudotaktowa	!	!LO:TX:t=P:problem:kreska pseudotaktowa	!
2GG/	-ri-	2B-\	-ri-	2g/	-ri-
=15-	=15-	=15-	=15-	=15-	=15-
2BB-/	-e	2B-\	-e	2fny/	-e
!	!	!LO:TX:t=P:problem:kreska pseudotaktowa	!	!LO:TX:t=P:problem:korekta kasownika na bemol	!
2BB-/	e-	2B-\	e-	4e-X/	e-
.	.	.	.	4d/	.
!	!	!LO:TX:t=P:problem:kreska pseudotaktowa	!	!	!
1C	-lei-	1G	-lei-	2e-X/	.
.	.	.	.	2e-/	-lei-
=16-	=16-	=16-	=16-	=16-	=16-
!LO:LB:g=original	!	!	!	!LO:TX:t=P:problem:kreska pseudotaktowa	!
1GG	-ſon	2G,</	-ſon	1d	-ſon
.	.	1d	ky-	.	.
00r	.	.	.	2r	.
*	*	*	*	*	*ij
!	!	!LO:TX:t=P:problem:kreska pseudotaktowa	!	!	!
.	.	2d\	-ri-	1a\	ky-
=17-	=17-	=17-	=17-	=17-	=17-
.	.	2c\	-e	.	.
!	!	!	!	!LO:TX:t=P:problem:kreska pseudotaktowa	!
.	.	4B-\	e-	2a\	-ri-
.	.	4A\	.	.	.
.	.	2B-\	.	4g/	-e
.	.	.	.	4f/	.
.	.	2B-\	-lei-	4f/	e-
.	.	.	.	8eny/L	.
!	!	!	!	!LO:TX:t=P:problem:kreska pseudotaktowa	!
.	.	.	.	8d/J	.
=18-	=18-	=18-	=18-	=18-	=18-
.	.	1A	-ſon	2e/	.
!	!	!	!	!LO:TX:t=P:problem:kreska pseudotaktowa	!
.	.	.	.	2e/	-lei-
2.GG/	ky-	2r	.	2d/	-ſon
*	*	*	*	*	*Xij
.	.	1G/	ky-	1b-\	e-
4AA/	-ri-	.	.	.	.
=19-	=19-	=19-	=19-	=19-	=19-
4BB-/	-e	.	.	.	.
4C/	.	.	.	.	.
2D/	e-	2F#X/	-ri-	2.a\	.
2BB-/	-lei-	2G/	-e	.	.
.	.	.	.	4g/	.
!	!	!LO:LB:g=original	!	!LO:LB:g=original	!
2GG/	.	2B-\	e-	1g\	.
=20-	=20-	=20-	=20-	=20-	=20-
1D	.	1A	-lei-	.	.
.	.	.	.	2f#X/	-lei-
1GG;	-ſon.	1G;;	-ſon.	1g;<	-son.
!LO:LB:g=original	!	!LO:LB:g=original	!	!LO:LB:g=original	!
=-	=-	=-	=-	=-	=-
*-	*-	*-	*-	*-	*-
!!!system-decoration: [(s1,s2,s3)]
!!!AIN: 1 empty 1 tenor 1 vox
!!!ENC: Marta Chmielewska
!!!END: 2021-03-24
!!!RDF**kern: < = below
!!!RDF**kern: > = above
!!!ENC: Andrzej Kubiczek
!!!END: 2021-03-10
